X: 20705
M: 2/4
L: 1/16
K: G
[|\
d4(d2e2) | c4B4 | (A3G)(F2G2) | A4 z2(Bc) |\
d2d2 d2ed | c2c2 c2dc | B2B2 B2cB | A2A2 A2GA |\


